public/cloud-icons/azure/ai/cognitive-services-language-understanding.svg

<?xml version="1.0" encoding="UTF-8" standalone="no"?>
<!-- Generated by Microsoft Visio, SVG Export Cognitive Services Language Understanding.svg Page-1 -->

<svg
   xmlns:dc="http://purl.org/dc/elements/1.1/"
   xmlns:cc="http://creativecommons.org/ns#"
   xmlns:rdf="http://www.w3.org/1999/02/22-rdf-syntax-ns#"
   xmlns:svg="http://www.w3.org/2000/svg"
   xmlns="http://www.w3.org/2000/svg"
   xmlns:sodipodi="http://sodipodi.sourceforge.net/DTD/sodipodi-0.dtd"
   xmlns:inkscape="http://www.inkscape.org/namespaces/inkscape"
   width="56.689999"
   height="56.689999"
   viewBox="0 0 56.689998 56.689999"
   xml:space="preserve"
   class="st4"
   version="1.1"
   id="svg35"
   sodipodi:docname="Cognitive Services Language Understanding.svg"
   style="font-size:12px;overflow:visible;color-interpolation-filters:sRGB;fill:none;fill-rule:evenodd;stroke-linecap:square;stroke-miterlimit:3"
   inkscape:version="0.92.5 (2060ec1f9f, 2020-04-08)"><metadata
   id="metadata39"><rdf:RDF><cc:Work
       rdf:about=""><dc:format>image/svg+xml</dc:format><dc:type
         rdf:resource="http://purl.org/dc/dcmitype/StillImage" /></cc:Work></rdf:RDF></metadata><sodipodi:namedview
   pagecolor="#ffffff"
   bordercolor="#666666"
   borderopacity="1"
   objecttolerance="10"
   gridtolerance="10"
   guidetolerance="10"
   inkscape:pageopacity="0"
   inkscape:pageshadow="2"
   inkscape:window-width="640"
   inkscape:window-height="480"
   id="namedview37"
   showgrid="false"
   inkscape:zoom="1.8924055"
   inkscape:cx="28.346501"
   inkscape:cy="28.3398"
   inkscape:window-x="0"
   inkscape:window-y="0"
   inkscape:window-maximized="0"
   inkscape:current-layer="svg35" />
	<style
   type="text/css"
   id="style2">
	<![CDATA[
		.st1 {fill:#0078d4;stroke:none;stroke-linecap:butt;stroke-width:34}
		.st2 {fill:url(#grad0-8);stroke:none;stroke-linecap:butt;stroke-width:34}
		.st3 {fill:#ffffff;stroke:none;stroke-linecap:butt;stroke-width:34}
		.st4 {fill:none;fill-rule:evenodd;font-size:12px;overflow:visible;stroke-linecap:square;stroke-miterlimit:3}
	]]>
	</style>

	<defs
   id="Patterns_And_Gradients">
		<linearGradient
   id="grad0-8"
   x1="0"
   y1="73.539997"
   x2="51.170001"
   y2="73.539997"
   gradientUnits="userSpaceOnUse">
			<stop
   offset="0"
   stop-color="#5ea0ef"
   stop-opacity="1"
   id="stop4" />
			<stop
   offset="1"
   stop-color="#0078d4"
   stop-opacity="1"
   id="stop6" />
		</linearGradient>
	</defs>
	<g
   id="g33"
   transform="translate(-34,-34.0043)">
		<title
   id="title10">Page-1</title>
		<g
   id="group19785-1"
   transform="translate(34,-34.0157)">
			<title
   id="title12">Cognitive Services Language Understanding.19785</title>
			<g
   id="group19786-2">
				<title
   id="title14">Sheet.19786</title>
				<g
   id="shape19787-3">
					<title
   id="title16">Sheet.19787</title>
					<path
   d="M 0,96.36 A 28.3471,28.3471 -180 0 0 28.35,124.71 28.3471,28.3471 -180 0 0 56.69,96.36 28.3471,28.3471 -180 0 0 28.35,68.02 28.3471,28.3471 -180 0 0 0,96.36 Z"
   class="st1"
   id="path18"
   inkscape:connector-curvature="0"
   style="fill:#0078d4;stroke:none;stroke-width:34;stroke-linecap:butt" />
				</g>
				<g
   id="shape19788-5"
   transform="translate(2.7622,-2.76535)">
					<title
   id="title21">Sheet.19788</title>
					<path
   d="m 0,99.13 a 25.5817,25.5817 -180 0 0 25.58,25.58 v 0 A 25.5817,25.5817 -180 0 0 51.17,99.13 V 99.12 A 25.5817,25.5817 -180 0 0 25.58,73.54 v 0 A 25.5817,25.5817 -180 0 0 0,99.12 Z"
   class="st2"
   id="path23"
   inkscape:connector-curvature="0"
   style="fill:url(#grad0-8);stroke:none;stroke-width:34;stroke-linecap:butt" />
				</g>
				<g
   id="shape19789-9"
   transform="translate(13.3638,-11.5591)">
					<title
   id="title26">Sheet.19789</title>
					<path
   d="m 6.83,124.7 a 6.4126,6.4126 0 0 1 -3.89,-0.95 4.3874,4.3874 0 0 1 -1.13,-3.46 v -9 c 0,-1.47 -0.6,-2.24 -1.81,-2.24 v -2.25 c 1.21,0 1.81,-0.78 1.81,-2.34 v -8.82 a 4.60157,4.60157 0 0 1 1.13,-3.55 5.85512,5.85512 0 0 1 3.89,-0.94 v 2.25 c -1.3,0 -1.99,0.69 -1.99,2.16 v 8.64 c 0,1.99 -0.6,3.2 -1.89,3.72 a 3.60315,3.60315 0 0 1 1.89,3.72 v 8.56 a 2.97638,2.97638 -180 0 0 0.44,1.73 1.88976,1.88976 -180 0 0 1.46,0.52 z M 21.72,91.14 a 6.4126,6.4126 0 0 1 3.89,0.95 4.3874,4.3874 0 0 1 1.12,3.46 v 9 c 0,1.47 0.61,2.25 1.82,2.25 v 2.25 c -1.21,0 -1.82,0.77 -1.82,2.33 v 8.74 a 4.59213,4.59213 0 0 1 -1.12,3.55 5.82047,5.82047 0 0 1 -3.89,1.04 v -2.25 c 1.29,0 1.99,-0.69 1.99,-2.16 v -8.66 c 0,-1.99 0.6,-3.2 1.89,-3.72 A 3.60315,3.60315 0 0 1 23.71,104.2 V 95.64 A 2.97638,2.97638 -180 0 0 23.27,93.91 1.88976,1.88976 -180 0 0 21.8,93.39 Z"
   class="st3"
   id="path28"
   inkscape:connector-curvature="0"
   style="fill:#ffffff;stroke:none;stroke-width:34;stroke-linecap:butt" />
				</g>
			</g>
		</g>
	</g>
</svg>

<svg xmlns="http://www.w3.org/2000/svg" xml:space="preserve" width="56.69" height="56.69" style="font-size:12px;overflow:visible;color-interpolation-filters:sRGB;fill-rule:evenodd;stroke-linecap:square;stroke-miterlimit:3" viewBox="0 0 56.69 56.69"><defs><linearGradient id="a" x1="0" x2="51.17" y1="73.54" y2="73.54" gradientUnits="userSpaceOnUse"><stop offset="0" stop-color="#5ea0ef"/><stop offset="1" stop-color="#0078d4"/></linearGradient></defs><g transform="translate(-34 -34.004)"><title>Page-1</title><g transform="translate(34 -34.016)"><title>Cognitive Services Language Understanding.19785</title><title>Sheet.19786</title><title>Sheet.19787</title><path d="M0 96.36a28.347 28.347-180 0 0 28.35 28.35 28.347 28.347-180 0 0 28.34-28.35 28.347 28.347-180 0 0-28.34-28.34A28.347 28.347-180 0 0 0 96.36" style="fill:#0078d4;stroke:none;stroke-width:34;stroke-linecap:butt"/><g transform="translate(2.762 -2.765)"><title>Sheet.19788</title><path d="M0 99.13a25.58 25.58-180 0 0 25.58 25.58 25.58 25.58-180 0 0 25.59-25.58v-.01a25.58 25.58-180 0 0-25.59-25.58A25.58 25.58-180 0 0 0 99.12Z" style="fill:url(#a);stroke:none;stroke-width:34;stroke-linecap:butt"/></g><g transform="translate(13.364 -11.56)"><title>Sheet.19789</title><path d="M6.83 124.7a6.4 6.4 0 0 1-3.89-.95 4.4 4.4 0 0 1-1.13-3.46v-9c0-1.47-.6-2.24-1.81-2.24v-2.25c1.21 0 1.81-.78 1.81-2.34v-8.82a4.6 4.6 0 0 1 1.13-3.55 5.86 5.86 0 0 1 3.89-.94v2.25c-1.3 0-1.99.69-1.99 2.16v8.64c0 1.99-.6 3.2-1.89 3.72a3.6 3.6 0 0 1 1.89 3.72v8.56a3 3-180 0 0 .44 1.73 1.9 1.9-180 0 0 1.46.52zm14.89-33.56a6.4 6.4 0 0 1 3.89.95 4.4 4.4 0 0 1 1.12 3.46v9c0 1.47.61 2.25 1.82 2.25v2.25c-1.21 0-1.82.77-1.82 2.33v8.74a4.6 4.6 0 0 1-1.12 3.55 5.82 5.82 0 0 1-3.89 1.04v-2.25c1.29 0 1.99-.69 1.99-2.16v-8.66c0-1.99.6-3.2 1.89-3.72a3.6 3.6 0 0 1-1.89-3.72v-8.56a3 3-180 0 0-.44-1.73 1.9 1.9-180 0 0-1.47-.52Z" style="fill:#fff;stroke:none;stroke-width:34;stroke-linecap:butt"/></g></g></g></svg>
